X:1
T: The Red Red Rose
C:
R:Strathspey
Q: 128
K:C
M:4/4
L:1/16
|:d2|DD3 E3F d3c B3A|B3A Bd3 e4 def2|DD3 E3F d3c B3A|B3A Bc3 d6 d2|
DD3 E3F d3c B3A|B3A Bd3 e4 def2|DD3 E3F d3c B3A|B3A Bc3 d6 A2|
d3f e3d Bd3 A3F|A3A g3f fe3 e3a|d3f e3d Bd3 A3F|AA3 B3c d6 A2|
d3f e3d Bd3 A3F|A3A g3f fe3 e3a|d3f e3d Bd3 A3F|AA3 B3c d6:|
